art/logos/ngpc.svg

<?xml version="1.0" encoding="utf-8"?>
<!-- Generator: Adobe Illustrator 16.0.3, SVG Export Plug-In . SVG Version: 6.00 Build 0)  -->
<!DOCTYPE svg PUBLIC "-//W3C//DTD SVG 1.1//EN" "http://www.w3.org/Graphics/SVG/1.1/DTD/svg11.dtd">
<svg version="1.1" id="Ebene_3" xmlns="http://www.w3.org/2000/svg" xmlns:xlink="http://www.w3.org/1999/xlink" x="0px" y="0px"
	 width="566.927px" height="167.468px" viewBox="0 0 566.927 167.468" enable-background="new 0 0 566.927 167.468"
	 xml:space="preserve">
<g>
	<g>
		<path fill="#1D1D1B" d="M33.98,108.929l-0.068-41.587h5.384v49.797h-5.384L5.249,75.215l0.135,41.924H0V67.342h5.652
			L33.98,108.929z"/>
		<path fill="#1D1D1B" d="M45.31,67.342h26.419v4.912H50.827v17.294h20.767v4.912H50.827v17.767h20.902v4.912H45.31V67.342z"/>
		<path fill="#1D1D1B" d="M74.242,92.375c0-15.341,11.911-25.908,25.976-25.908c14.602,0,25.975,11.171,25.975,25.773
			c0,14.604-11.305,25.773-25.975,25.773c-14.738,0-25.976-11.373-25.976-25.572V92.375z M79.827,92.24
			c0,11.709,8.815,20.861,20.458,20.861c11.776,0,20.39-9.486,20.39-20.861c0-11.373-8.613-20.861-20.457-20.861
			c-11.709,0-20.391,9.286-20.391,20.792V92.24z"/>
		<path fill="#1D1D1B" d="M172.16,80.262c-1.548-2.153-3.433-3.97-5.586-5.383c-3.23-2.221-7.133-3.5-11.574-3.5
			c-10.902,0-20.39,8.344-20.39,20.792c0,12.652,9.556,20.996,20.457,20.996c5.249,0,9.892-1.815,13.324-4.508
			c3.5-2.76,5.922-6.527,6.73-10.432h-27.104v-4.576h33.564c-0.067,2.895-0.74,6.527-2.221,9.624
			c-4.307,9.354-14.267,14.804-24.293,14.804c-14.535,0-26.042-11.17-26.042-25.908c0-14.938,11.709-25.706,26.109-25.706
			c10.094,0,19.448,5.653,23.351,13.795h-6.325V80.262L172.16,80.262z"/>
		<path fill="#1D1D1B" d="M184.25,67.342h27.59v4.912h-22.071v17.294h21.937v4.912h-21.937v17.767h22.071v4.912h-27.59V67.342z"/>
		<path fill="#1D1D1B" d="M214.061,92.375c0-15.341,11.911-25.908,25.975-25.908c14.603,0,25.975,11.171,25.975,25.773
			c0,14.604-11.305,25.773-25.975,25.773c-14.737,0-25.975-11.373-25.975-25.572V92.375z M219.646,92.24
			c0,11.709,8.815,20.861,20.457,20.861c11.777,0,20.39-9.486,20.39-20.861c0-11.373-8.613-20.861-20.457-20.861
			c-11.709,0-20.39,9.286-20.39,20.792V92.24L219.646,92.24z"/>
	</g>
	<g>
		<path fill="#1D1D1B" d="M327.466,92.375c0-15.341,11.91-25.908,25.976-25.908c14.603,0,25.976,11.171,25.976,25.773
			c0,14.604-11.305,25.773-25.976,25.773c-14.737,0-25.976-11.373-25.976-25.572V92.375z M333.05,92.24
			c0,11.709,8.816,20.861,20.459,20.861c11.777,0,20.391-9.486,20.391-20.861c0-11.373-8.613-20.861-20.458-20.861
			c-11.708,0-20.392,9.286-20.392,20.792V92.24L333.05,92.24z"/>
		<path fill="#1D1D1B" d="M435.001,103.748c-3.229,7.672-11.91,14.268-22.879,14.268c-14.736,0-25.976-11.373-25.976-25.772
			c0-14.2,10.97-25.774,25.906-25.774c12.313,0,20.054,8.21,22.946,14.535h-5.99c-1.684-2.96-7.334-9.623-16.956-9.623
			c-11.642,0-20.39,9.219-20.39,20.793c0,11.777,8.813,20.929,20.39,20.929c10.433,0,15.745-7.47,16.956-9.354L435.001,103.748
			L435.001,103.748z"/>
		<path fill="#1D1D1B" d="M489.644,67.342h27.592v4.912h-22.072v17.294h21.936v4.912h-21.936v17.767h22.072v4.912h-27.592V67.342
			L489.644,67.342z"/>
		<path fill="#1D1D1B" d="M545.228,72.254h-16.047v-4.912h37.746v4.912h-16.113v44.885h-5.586V72.254z"/>
	</g>
	<path fill="#F10000" d="M214.245,155.511c-2.053,6.982-8.625,11.957-16.521,11.957c-10.314,0-17.707-8.17-17.707-17.569
		c0-8.99,6.982-17.479,17.662-17.479c9.721,0.047,15.243,7.211,16.566,12.142h-7.165c-1.049-2.328-4.061-6.115-9.447-6.162
		c-6.572,0-10.816,5.521-10.816,11.5c0,6.162,4.427,11.594,10.862,11.594c6.024,0,8.763-4.746,9.401-5.979L214.245,155.511
		L214.245,155.511z"/>
	<path fill="#F10000" d="M232.454,150.216c0-10.813,8.306-17.799,17.708-17.799c10.223,0,17.753,7.94,17.753,17.524
		s-7.485,17.523-17.799,17.523c-10.36,0-17.662-8.168-17.662-17.203V150.216L232.454,150.216z M239.254,149.943
		c0,6.162,4.427,11.547,11,11.547c6.846,0,10.862-5.934,10.862-11.5c0-5.658-4.016-11.594-10.908-11.594
		c-6.754,0-10.954,5.567-10.954,11.502V149.943z"/>
	<path fill="#F10000" d="M287.996,133.059h6.799v27.793h11.09v5.979h-17.889V133.059z"/>
	<path fill="#F10000" d="M322.606,150.216c0-10.813,8.306-17.799,17.707-17.799c10.224,0,17.754,7.94,17.754,17.524
		s-7.485,17.523-17.799,17.523c-10.358,0-17.662-8.168-17.662-17.203V150.216z M329.406,149.943c0,6.162,4.428,11.547,10.998,11.547
		c6.846,0,10.862-5.934,10.862-11.5c0-5.658-4.017-11.594-10.907-11.594c-6.754,0-10.953,5.567-10.953,11.502V149.943
		L329.406,149.943z"/>
	<path fill="#1D1D1B" d="M475.574,117.139h6.932l-25.871-24.968l23.783-24.83h-6.055l-26.105,26.998v-6.396V67.342h-5.518v49.797
		h5.518v-16.228l5.08-5.306L475.574,117.139z"/>
	<path fill="#F10000" d="M385.808,133.059c3.799,0.096,7.156,0.291,10.176,2.821c0.778,0.636,1.51,1.461,2.045,2.289
		c1.559,2.388,1.704,5.063,1.704,5.99c0,0.825-0.097,3.114-1.362,5.209c-0.342,0.532-0.779,1.264-1.802,2.188
		c-1.12,0.976-2.288,1.51-2.728,1.704c-0.828,0.341-1.654,0.585-3.456,0.974l9.933,13.193h-7.645l-9.543-12.998v12.998h-6.864
		v-34.371L385.808,133.059L385.808,133.059z M383.13,149.369h3.408c0.391,0,0.729,0,1.121-0.049c0.729,0,3.164-0.098,4.771-2.045
		c0.388-0.488,1.071-1.51,1.071-3.166c0-0.535-0.049-1.851-0.926-3.064c-1.511-2.047-3.848-2.24-6.186-2.291h-3.262v10.615H383.13z"
		/>
	<path fill="none" d="M302.794,120.945c-10.838-21.554-21.646-43.05-32.461-64.562c0.06-0.042,0.108-0.083,0.163-0.11
		c2.697-1.38,5.395-2.76,8.091-4.138c3.812-1.946,7.625-3.883,11.433-5.839c4.003-2.056,8.21-3.293,12.751-3.146
		c3.091,0.1,5.925,0.999,8.411,2.895c2.194,1.674,3.747,3.848,4.937,6.306c1.129,2.332,1.934,4.759,1.979,7.377
		c0.063,3.636-1.036,6.924-2.985,9.977c-1.306,2.042-2.796,3.921-4.544,5.584c-1.204,1.146-2.491,2.204-3.739,3.299
		c-4.569-3.241-9.041-6.41-13.531-9.593c0.853-3.113,1.693-6.198,2.539-9.291c4.361,0,8.662,0,12.94,0c0-3.277,0-6.527,0-9.823
		c-6.682,0.064-13.29,0.127-19.897,0.193c-2.407,6.801-4.803,13.565-7.2,20.342c7.735,6.398,15.444,12.774,23.159,19.157
		c3.066-1.169,5.975-2.609,8.713-4.387c4.363-2.835,8-6.396,10.671-10.881c2.481-4.169,3.728-8.71,3.796-13.559
		c0.042-3.005-0.414-5.943-1.298-8.823c-1.173-3.816-2.987-7.27-5.755-10.165c-5.189-5.433-11.553-8.353-19.081-8.621
		c-4.45-0.158-8.66,0.847-12.632,2.842c-1.789,0.9-3.541,1.872-5.341,2.744c-4.01,1.939-8.04,3.837-12.062,5.748
		c-3.547,1.686-7.095,3.366-10.642,5.047c-1.199,0.569-2.399,1.14-3.6,1.71c12.046,24.561,24.078,49.093,36.104,73.625
		C296.762,123.541,299.748,122.255,302.794,120.945z"/>
	<path fill="#F10000" d="M302.794,120.945c-3.047,1.311-6.032,2.596-9.086,3.908c-12.025-24.529-24.059-49.063-36.104-73.624
		c1.201-0.57,2.4-1.141,3.6-1.71c3.547-1.682,7.095-3.362,10.642-5.047c4.022-1.911,8.052-3.809,12.062-5.748
		c1.8-0.872,3.552-1.844,5.341-2.744c3.972-1.996,8.182-3,12.631-2.842c7.529,0.268,13.893,3.188,19.082,8.621
		c2.768,2.895,4.582,6.348,5.754,10.165c0.885,2.879,1.341,5.818,1.299,8.823c-0.068,4.849-1.313,9.39-3.796,13.559
		c-2.673,4.484-6.308,8.045-10.673,10.881c-2.736,1.776-5.645,3.217-8.711,4.386c-7.715-6.382-15.424-12.758-23.159-19.156
		c2.397-6.777,4.793-13.541,7.2-20.342c6.607-0.065,13.218-0.129,19.897-0.193c0,3.296,0,6.546,0,9.823c-4.278,0-8.579,0-12.94,0
		c-0.846,3.093-1.688,6.178-2.539,9.291c4.49,3.183,8.961,6.352,13.531,9.593c1.248-1.095,2.535-2.153,3.739-3.299
		c1.748-1.663,3.238-3.542,4.543-5.584c1.95-3.053,3.05-6.341,2.986-9.977c-0.048-2.618-0.851-5.045-1.979-7.377
		c-1.188-2.458-2.742-4.632-4.937-6.306c-2.486-1.896-5.32-2.794-8.411-2.895c-4.541-0.147-8.748,1.089-12.751,3.146
		c-3.806,1.956-7.621,3.893-11.433,5.839c-2.697,1.378-5.395,2.758-8.091,4.138c-0.055,0.028-0.104,0.069-0.163,0.11
		C281.149,77.895,291.957,99.391,302.794,120.945z"/>
	<path fill="#F10000" d="M310.439,26.526c-2.162-0.445-4.264-0.879-6.423-1.324c1.257-8.395,2.514-16.788,3.774-25.202
		c3.935,0.574,7.832,1.145,11.791,1.724C316.526,10.012,313.488,18.253,310.439,26.526z"/>
	<path fill="#07B8F9" d="M345.539,19.679c2.088,3.381,4.147,6.72,6.241,10.112c-6.819,4.222-13.635,8.44-20.472,12.671
		c-1.434-2.14-2.84-4.241-4.278-6.391C333.195,30.612,339.347,25.163,345.539,19.679z"/>
	<path fill="#069211" d="M329.069,6.482c3.017,2.085,5.979,4.134,8.954,6.19c-5.377,6.412-10.738,12.805-16.136,19.239
		c-1.888-1.165-3.759-2.319-5.683-3.507C320.475,21.129,324.753,13.837,329.069,6.482z"/>
	<g>
		<path d="M412.074,158.443h-1.98v-1.621h5.791v1.621h-1.967v7.535h-1.844V158.443L412.074,158.443z"/>
		<path d="M416.851,165.979v-9.156h2.486l2.354,6.57l2.313-6.57h2.5v9.156h-1.709l0.051-7.338l-2.563,7.338h-1.213l-2.574-7.338
			l0.051,7.338H416.851z"/>
	</g>
</g>
</svg>

<?xml version="1.0" encoding="UTF-8" standalone="no"?>
<!DOCTYPE svg PUBLIC "-//W3C//DTD SVG 1.1//EN" "http://www.w3.org/Graphics/SVG/1.1/DTD/svg11.dtd">
<svg width="100%" height="100%" viewBox="0 0 567 168" version="1.1" xmlns="http://www.w3.org/2000/svg" xmlns:xlink="http://www.w3.org/1999/xlink" xml:space="preserve" xmlns:serif="http://www.serif.com/" style="fill-rule:evenodd;clip-rule:evenodd;stroke-linejoin:round;stroke-miterlimit:2;">
    <g>
        <g>
            <g>
                <path d="M33.98,108.929L33.912,67.342L39.296,67.342L39.296,117.139L33.912,117.139L5.249,75.215L5.384,117.139L0,117.139L0,67.342L5.652,67.342L33.98,108.929Z" style="fill:rgb(235,235,235);fill-rule:nonzero;"/>
                <path d="M45.31,67.342L71.729,67.342L71.729,72.254L50.827,72.254L50.827,89.548L71.594,89.548L71.594,94.46L50.827,94.46L50.827,112.227L71.729,112.227L71.729,117.139L45.31,117.139L45.31,67.342Z" style="fill:rgb(235,235,235);fill-rule:nonzero;"/>
                <path d="M74.242,92.375C74.242,77.034 86.153,66.467 100.218,66.467C114.82,66.467 126.193,77.638 126.193,92.24C126.193,106.844 114.888,118.013 100.218,118.013C85.48,118.013 74.242,106.64 74.242,92.441L74.242,92.375ZM79.827,92.24C79.827,103.949 88.642,113.101 100.285,113.101C112.061,113.101 120.675,103.615 120.675,92.24C120.675,80.867 112.062,71.379 100.218,71.379C88.509,71.379 79.827,80.665 79.827,92.171L79.827,92.24Z" style="fill:rgb(235,235,235);fill-rule:nonzero;"/>
                <path d="M172.16,80.262C170.612,78.109 168.727,76.292 166.574,74.879C163.344,72.658 159.441,71.379 155,71.379C144.098,71.379 134.61,79.723 134.61,92.171C134.61,104.823 144.166,113.167 155.067,113.167C160.316,113.167 164.959,111.352 168.391,108.659C171.891,105.899 174.313,102.132 175.121,98.227L148.017,98.227L148.017,93.651L181.581,93.651C181.514,96.546 180.841,100.178 179.36,103.275C175.053,112.629 165.093,118.079 155.067,118.079C140.532,118.079 129.025,106.909 129.025,92.171C129.025,77.233 140.734,66.465 155.134,66.465C165.228,66.465 174.582,72.118 178.485,80.26L172.16,80.26L172.16,80.262Z" style="fill:rgb(235,235,235);fill-rule:nonzero;"/>
                <path d="M184.25,67.342L211.84,67.342L211.84,72.254L189.769,72.254L189.769,89.548L211.706,89.548L211.706,94.46L189.769,94.46L189.769,112.227L211.84,112.227L211.84,117.139L184.25,117.139L184.25,67.342Z" style="fill:rgb(235,235,235);fill-rule:nonzero;"/>
                <path d="M214.061,92.375C214.061,77.034 225.972,66.467 240.036,66.467C254.639,66.467 266.011,77.638 266.011,92.24C266.011,106.844 254.706,118.013 240.036,118.013C225.299,118.013 214.061,106.64 214.061,92.441L214.061,92.375ZM219.646,92.24C219.646,103.949 228.461,113.101 240.103,113.101C251.88,113.101 260.493,103.615 260.493,92.24C260.493,80.867 251.88,71.379 240.036,71.379C228.327,71.379 219.646,80.665 219.646,92.171L219.646,92.24Z" style="fill:rgb(235,235,235);fill-rule:nonzero;"/>
            </g>
            <g>
                <path d="M327.466,92.375C327.466,77.034 339.376,66.467 353.442,66.467C368.045,66.467 379.418,77.638 379.418,92.24C379.418,106.844 368.113,118.013 353.442,118.013C338.705,118.013 327.466,106.64 327.466,92.441L327.466,92.375ZM333.05,92.24C333.05,103.949 341.866,113.101 353.509,113.101C365.286,113.101 373.9,103.615 373.9,92.24C373.9,80.867 365.287,71.379 353.442,71.379C341.734,71.379 333.05,80.665 333.05,92.171L333.05,92.24Z" style="fill:rgb(235,235,235);fill-rule:nonzero;"/>
                <path d="M435.001,103.748C431.772,111.42 423.091,118.016 412.122,118.016C397.386,118.016 386.146,106.643 386.146,92.244C386.146,78.044 397.116,66.47 412.052,66.47C424.365,66.47 432.106,74.68 434.998,81.005L429.008,81.005C427.324,78.045 421.674,71.382 412.052,71.382C400.41,71.382 391.662,80.601 391.662,92.175C391.662,103.952 400.475,113.104 412.052,113.104C422.485,113.104 427.797,105.634 429.008,103.75L435.001,103.748Z" style="fill:rgb(235,235,235);fill-rule:nonzero;"/>
                <path d="M489.644,67.342L517.236,67.342L517.236,72.254L495.164,72.254L495.164,89.548L517.1,89.548L517.1,94.46L495.164,94.46L495.164,112.227L517.236,112.227L517.236,117.139L489.644,117.139L489.644,67.342Z" style="fill:rgb(235,235,235);fill-rule:nonzero;"/>
                <path d="M545.228,72.254L529.181,72.254L529.181,67.342L566.927,67.342L566.927,72.254L550.814,72.254L550.814,117.139L545.228,117.139L545.228,72.254Z" style="fill:rgb(235,235,235);fill-rule:nonzero;"/>
            </g>
            <path d="M475.574,117.139L482.506,117.139L456.635,92.171L480.418,67.341L474.363,67.341L448.258,94.339L448.258,67.342L442.74,67.342L442.74,117.139L448.258,117.139L448.258,100.911L453.338,95.605L475.574,117.139Z" style="fill:rgb(235,235,235);fill-rule:nonzero;"/>
        </g>
        <path d="M214.245,155.511C212.192,162.493 205.62,167.468 197.724,167.468C187.41,167.468 180.017,159.298 180.017,149.899C180.017,140.909 186.999,132.42 197.679,132.42C207.4,132.467 212.922,139.631 214.245,144.562L207.08,144.562C206.031,142.234 203.019,138.447 197.633,138.4C191.061,138.4 186.817,143.921 186.817,149.9C186.817,156.062 191.244,161.494 197.679,161.494C203.703,161.494 206.442,156.748 207.08,155.515L214.245,155.511Z" style="fill:rgb(241,0,0);fill-rule:nonzero;"/>
        <path d="M232.454,150.216C232.454,139.403 240.76,132.417 250.162,132.417C260.385,132.417 267.915,140.357 267.915,149.941C267.915,159.525 260.43,167.464 250.116,167.464C239.756,167.464 232.454,159.296 232.454,150.261L232.454,150.216ZM239.254,149.943C239.254,156.105 243.681,161.49 250.254,161.49C257.1,161.49 261.116,155.556 261.116,149.99C261.116,144.332 257.1,138.396 250.208,138.396C243.454,138.396 239.254,143.963 239.254,149.898L239.254,149.943Z" style="fill:rgb(241,0,0);fill-rule:nonzero;"/>
        <path d="M287.996,133.059L294.795,133.059L294.795,160.852L305.885,160.852L305.885,166.831L287.996,166.831L287.996,133.059Z" style="fill:rgb(241,0,0);fill-rule:nonzero;"/>
        <path d="M322.606,150.216C322.606,139.403 330.912,132.417 340.313,132.417C350.537,132.417 358.067,140.357 358.067,149.941C358.067,159.525 350.582,167.464 340.268,167.464C329.91,167.464 322.606,159.296 322.606,150.261L322.606,150.216ZM329.406,149.943C329.406,156.105 333.834,161.49 340.404,161.49C347.25,161.49 351.266,155.556 351.266,149.99C351.266,144.332 347.249,138.396 340.359,138.396C333.605,138.396 329.406,143.963 329.406,149.898L329.406,149.943Z" style="fill:rgb(241,0,0);fill-rule:nonzero;"/>
        <path d="M385.808,133.059C389.607,133.155 392.964,133.35 395.984,135.88C396.762,136.516 397.494,137.341 398.029,138.169C399.588,140.557 399.733,143.232 399.733,144.159C399.733,144.984 399.636,147.273 398.371,149.368C398.029,149.9 397.592,150.632 396.569,151.556C395.449,152.532 394.281,153.066 393.841,153.26C393.013,153.601 392.187,153.845 390.385,154.234L400.318,167.427L392.673,167.427L383.13,154.429L383.13,167.427L376.266,167.427L376.266,133.056L385.808,133.059ZM383.127,149.369L386.538,149.369C386.929,149.369 387.267,149.369 387.659,149.32C388.388,149.32 390.823,149.222 392.43,147.275C392.818,146.787 393.501,145.765 393.501,144.109C393.501,143.574 393.452,142.258 392.575,141.045C391.064,138.998 388.727,138.805 386.389,138.754L383.127,138.754L383.127,149.369Z" style="fill:rgb(241,0,0);fill-rule:nonzero;"/>
        <path d="M302.794,120.945C291.956,99.391 281.148,77.895 270.333,56.383C270.393,56.341 270.441,56.3 270.496,56.273C273.193,54.893 275.891,53.513 278.587,52.135C282.399,50.189 286.212,48.252 290.02,46.296C294.023,44.24 298.23,43.003 302.771,43.15C305.862,43.25 308.696,44.149 311.182,46.045C313.376,47.719 314.929,49.893 316.119,52.351C317.248,54.683 318.053,57.11 318.098,59.728C318.161,63.364 317.062,66.652 315.113,69.705C313.807,71.747 312.317,73.626 310.569,75.289C309.365,76.435 308.078,77.493 306.83,78.588C302.261,75.347 297.789,72.178 293.299,68.995C294.152,65.882 294.992,62.797 295.838,59.704L308.778,59.704L308.778,49.881C302.096,49.945 295.488,50.008 288.881,50.074C286.474,56.875 284.078,63.639 281.681,70.416C289.416,76.814 297.125,83.19 304.84,89.573C307.906,88.404 310.815,86.964 313.553,85.186C317.916,82.351 321.553,78.79 324.224,74.305C326.705,70.136 327.952,65.595 328.02,60.746C328.062,57.741 327.606,54.803 326.722,51.923C325.549,48.107 323.735,44.653 320.967,41.758C315.778,36.325 309.414,33.405 301.886,33.137C297.436,32.979 293.226,33.984 289.254,35.979C287.465,36.879 285.713,37.851 283.913,38.723C279.903,40.662 275.873,42.56 271.851,44.471C268.304,46.157 264.756,47.837 261.209,49.518C260.01,50.087 258.81,50.658 257.609,51.228C269.655,75.789 281.687,100.321 293.713,124.853C296.762,123.541 299.748,122.255 302.794,120.945Z" style="fill:none;fill-rule:nonzero;"/>
        <path d="M302.794,120.945C299.747,122.256 296.762,123.541 293.708,124.853C281.683,100.324 269.649,75.79 257.604,51.229C258.805,50.659 260.004,50.088 261.204,49.519C264.751,47.837 268.299,46.157 271.846,44.472C275.868,42.561 279.898,40.663 283.908,38.724C285.708,37.852 287.46,36.88 289.249,35.98C293.221,33.984 297.431,32.98 301.88,33.138C309.409,33.406 315.773,36.326 320.962,41.759C323.73,44.654 325.544,48.107 326.716,51.924C327.601,54.803 328.057,57.742 328.015,60.747C327.947,65.596 326.702,70.137 324.219,74.306C321.546,78.79 317.911,82.351 313.546,85.187C310.81,86.963 307.901,88.404 304.835,89.573C297.12,83.191 289.411,76.815 281.676,70.417C284.073,63.64 286.469,56.876 288.876,50.075C295.483,50.01 302.094,49.946 308.773,49.882L308.773,59.705L295.833,59.705C294.987,62.798 294.145,65.883 293.294,68.996C297.784,72.179 302.255,75.348 306.825,78.589C308.073,77.494 309.36,76.436 310.564,75.29C312.312,73.627 313.802,71.748 315.107,69.706C317.057,66.653 318.157,63.365 318.093,59.729C318.045,57.111 317.242,54.684 316.114,52.352C314.926,49.894 313.372,47.72 311.177,46.046C308.691,44.15 305.857,43.252 302.766,43.151C298.225,43.004 294.018,44.24 290.015,46.297C286.209,48.253 282.394,50.19 278.582,52.136C275.885,53.514 273.187,54.894 270.491,56.274C270.436,56.302 270.387,56.343 270.328,56.384C281.149,77.895 291.957,99.391 302.794,120.945Z" style="fill:rgb(241,0,0);fill-rule:nonzero;"/>
        <path d="M310.439,26.526C308.277,26.081 306.175,25.647 304.016,25.202C305.273,16.807 306.53,8.414 307.79,-0C311.725,0.574 315.622,1.145 319.581,1.724C316.526,10.012 313.488,18.253 310.439,26.526Z" style="fill:rgb(241,0,0);fill-rule:nonzero;"/>
        <path d="M345.539,19.679C347.627,23.06 349.686,26.399 351.78,29.791C344.961,34.013 338.145,38.231 331.308,42.462C329.874,40.322 328.468,38.221 327.03,36.071C333.195,30.612 339.347,25.163 345.539,19.679Z" style="fill:rgb(7,184,249);fill-rule:nonzero;"/>
        <path d="M329.069,6.482C332.086,8.567 335.048,10.616 338.023,12.672C332.646,19.084 327.285,25.477 321.887,31.911C319.999,30.746 318.128,29.592 316.204,28.404C320.475,21.129 324.753,13.837 329.069,6.482Z" style="fill:rgb(6,146,17);fill-rule:nonzero;"/>
        <g>
            <path d="M412.074,158.443L410.094,158.443L410.094,156.822L415.885,156.822L415.885,158.443L413.918,158.443L413.918,165.978L412.074,165.978L412.074,158.443Z" style="fill-rule:nonzero;"/>
            <path d="M416.851,165.979L416.851,156.823L419.337,156.823L421.691,163.393L424.004,156.823L426.504,156.823L426.504,165.979L424.795,165.979L424.846,158.641L422.283,165.979L421.07,165.979L418.496,158.641L418.547,165.979L416.851,165.979Z" style="fill-rule:nonzero;"/>
        </g>
    </g>
</svg>
